Public/deploy/fonts/icomoon.svg

<?xml version="1.0" standalone="no"?>
<!DOCTYPE svg PUBLIC "-//W3C//DTD SVG 1.1//EN" "http://www.w3.org/Graphics/SVG/1.1/DTD/svg11.dtd" >
<svg xmlns="http://www.w3.org/2000/svg">
<metadata>Generated by IcoMoon</metadata>
<defs>
<font id="icomoon" horiz-adv-x="1024">
<font-face units-per-em="1024" ascent="960" descent="-64" />
<missing-glyph horiz-adv-x="1024" />
<glyph unicode="&#x20;" horiz-adv-x="512" d="" />
<glyph unicode="&#xe900;" glyph-name="osi" d="M574.054 270.234c89.293 34.202 133.734 134.144 99.533 223.027-34.202 89.088-134.349 133.53-223.437 99.328-89.293-34.202-133.734-134.144-99.533-223.027 17.613-45.67 53.658-81.715 99.533-99.328l-116.531-303.104c-257.024 98.304-385.229 386.048-286.72 642.458s386.662 384.614 643.686 286.106c256.819-98.509 385.229-386.048 286.515-642.662-50.586-131.686-154.829-235.52-286.515-286.106l-116.531 303.309z" />
<glyph unicode="&#xe901;" glyph-name="author" d="M765.542 685.978c0-140.028-113.515-253.542-253.542-253.542s-253.542 113.515-253.542 253.542c0 140.028 113.515 253.542 253.542 253.542s253.542-113.515 253.542-253.542zM1003.52-64c0 177.562-75.981 472.064-214.221 562.586-54.886-96.256-158.31-161.382-277.299-161.382s-222.208 65.126-277.299 161.382c-138.24-90.522-214.221-385.024-214.221-562.586z" />
<glyph unicode="&#xe902;" glyph-name="clock" d="M512 939.52c-271.36 0-491.52-220.16-491.52-491.52s220.16-491.52 491.52-491.52 491.52 220.16 491.52 491.52-220.16 491.52-491.52 491.52zM512.41 375.501l-271.565 271.565 72.499 72.499 199.066-199.066 141.107 141.107 72.499-72.499-213.606-213.606z" />
<glyph unicode="&#xe903;" glyph-name="inbox" d="M819.2 929.28h-614.4c-101.376 0-184.32-82.944-184.32-184.32v-368.64c0-101.376 82.944-184.32 184.32-184.32h399.565c9.83-12.698 19.251-26.214 28.877-40.96 53.248-82.33 57.754-127.59 22.323-184.32 141.722 56.73 190.464 101.99 243.712 184.32 22.118 34.202 35.43 62.054 41.37 87.040 38.298 33.792 62.874 83.149 62.874 138.24v368.64c0 101.376-82.944 184.32-184.32 184.32z" />
<glyph unicode="&#xe904;" glyph-name="package" d="M982.426 695.808l-425.574-174.694v-573.44l425.574 174.694v573.44zM41.574 695.808v-573.44l425.574-174.694v573.44l-425.574 174.694zM512 948.326l-417.997-171.622 417.997-171.418 417.997 171.418-417.997 171.622z" />
<glyph unicode="&#xe905;" glyph-name="star" d="M512 913.101l151.142-306.176 337.715-49.152-244.326-238.387 57.549-336.486-302.080 158.925-302.080-158.925 57.549 336.486-244.326 238.387 337.715 49.152z" />
<glyph unicode="&#xe906;" glyph-name="stable" d="M512 939.52c-271.36 0-491.52-220.16-491.52-491.52s220.16-491.52 491.52-491.52 491.52 220.16 491.52 491.52-220.16 491.52-491.52 491.52zM424.55 158.618l-230.195 230.195 115.917 115.917 114.483-114.483 289.382 289.382 115.917-115.917-405.504-405.094z" />
<glyph unicode="&#xe907;" glyph-name="beta" d="M509.542 457.83h-14.95v76.39h10.035c11.878 0 21.094 4.096 27.648 12.083s9.626 18.842 9.626 32.563-3.686 24.166-11.059 31.539c-7.373 7.373-16.998 11.059-28.877 11.059-14.95 0-25.805-4.71-32.768-14.131s-10.445-23.552-10.445-42.394v-189.44c5.325-3.891 12.902-7.168 22.938-9.83s19.046-4.096 27.238-4.096c16.794 0 30.106 4.301 39.731 12.698s14.541 21.299 14.541 38.298c0 13.722-4.71 24.781-14.131 32.973s-22.528 12.288-39.526 12.288zM512 939.52c-271.36 0-491.52-220.16-491.52-491.52s220.16-491.52 491.52-491.52 491.52 220.16 491.52 491.52-220.16 491.52-491.52 491.52zM633.242 314.061c-22.938-21.914-53.658-32.973-91.955-32.973-16.794 0-32.563 1.434-47.104 4.301s-26.419 6.554-35.43 11.059v-139.469h-102.605v417.178c0 39.322 13.107 69.632 39.322 91.341s62.669 32.358 109.568 32.358c43.418 0 77.414-9.216 101.99-27.648s36.864-43.827 36.864-76.39c0-26.010-6.349-46.285-19.251-61.235s-31.13-24.166-54.477-28.058v-2.048c33.587-4.301 58.368-14.746 73.933-31.334 15.77-16.589 23.552-39.322 23.552-68.198 0.205-37.274-11.469-66.97-34.406-88.883z" />
<glyph unicode="&#xe908;" glyph-name="branch" d="M450.56 194.458c-114.278 27.853-199.68 130.662-199.68 253.542s85.402 225.69 199.68 253.542v234.086c-242.483-30.31-430.080-236.954-430.080-487.629s187.597-457.318 430.080-487.629v234.086zM573.44 701.542c114.278-27.853 199.68-130.662 199.68-253.542 0-43.418-10.854-84.173-29.491-120.218l137.011-137.011v-67.789c76.39 86.63 122.88 200.294 122.88 325.018 0 250.675-187.597 457.318-430.080 487.629v-234.086zM650.24 448c0-76.348-61.892-138.24-138.24-138.24s-138.24 61.892-138.24 138.24c0 76.348 61.892 138.24 138.24 138.24s138.24-61.892 138.24-138.24zM757.76 139.981l-95.232 95.232c-26.419-18.842-56.73-32.768-89.088-40.55v-234.086c66.56 8.397 128.819 29.901 184.32 62.054v117.35z" />
<glyph unicode="&#xe909;" glyph-name="question" d="M512 939.52c-271.36 0-491.52-220.16-491.52-491.52s220.16-491.52 491.52-491.52 491.52 220.16 491.52 491.52-220.16 491.52-491.52 491.52zM555.827 182.374c-12.902-11.674-30.515-17.408-52.838-17.408-22.938 0-40.96 5.734-53.862 17.203s-19.456 27.853-19.456 49.357c0 21.299 6.144 37.888 18.637 49.357 12.493 11.674 30.72 17.408 54.886 17.408 23.142 0 40.96-5.939 53.453-17.613s18.637-28.262 18.637-49.357c-0.205-20.89-6.554-37.274-19.456-48.947zM669.286 489.984c-13.107-20.48-33.997-39.936-62.874-58.368-24.371-15.77-39.731-27.238-45.875-34.611s-9.216-15.974-9.216-26.010v-17.818h-106.906v29.901c0 22.733 4.71 41.984 13.926 57.549s25.805 30.925 49.357 45.875c18.842 11.878 32.358 22.528 40.55 31.949s12.288 20.48 12.288 32.768c0 9.83-4.506 17.408-13.312 23.142s-20.275 8.602-34.406 8.602c-35.021 0-75.981-12.493-122.88-37.274l-48.333 94.618c57.754 32.973 118.17 49.357 181.043 49.357 51.814 0 92.365-11.264 121.856-34.202 29.491-22.733 44.237-53.658 44.237-92.979 0.205-27.648-6.349-52.019-19.456-72.499z" />
<glyph unicode="&#xe90a;" glyph-name="warning" d="M512 939.52c-271.36 0-491.52-220.16-491.52-491.52s220.16-491.52 491.52-491.52 491.52 220.16 491.52 491.52-220.16 491.52-491.52 491.52zM566.477 198.554c-13.107-12.083-31.334-18.227-54.886-18.227-23.757 0-42.394 6.144-55.706 18.227s-20.070 29.082-20.070 50.586c0 21.914 6.554 38.912 19.456 50.995s31.744 18.227 56.525 18.227c24.576 0 43.008-6.144 55.706-18.227 12.493-12.083 18.842-29.082 18.842-50.995-0.205-21.709-6.758-38.502-19.866-50.586zM571.392 375.091h-118.784l-18.432 340.582h155.443l-18.227-340.582z" />
<glyph unicode="&#xe90b;" glyph-name="build_success" d="M375.194 40.653l-360.038 360.038 181.248 181.043 178.79-178.79 452.403 452.403 181.248-181.043z" />
<glyph unicode="&#xe90c;" glyph-name="build_unknown" d="M392.602 323.072v50.381c0 38.298 7.782 70.656 23.552 97.075 15.565 26.419 43.418 52.019 83.354 77.005 31.744 19.866 54.477 37.888 68.403 53.862s20.89 34.406 20.89 55.091c0 16.384-7.373 29.491-22.323 38.912-14.95 9.626-34.202 14.336-57.958 14.336-58.982 0-128-20.89-207.053-62.669l-81.51 159.539c97.28 55.501 198.861 83.354 304.947 83.354 87.245 0 155.648-19.251 205.21-57.549s74.547-90.522 74.547-156.467c0-47.309-11.059-88.269-33.178-122.88s-57.344-67.379-105.882-98.304c-40.96-26.624-66.765-46.080-77.005-58.368-10.445-12.288-15.565-26.829-15.565-43.622v-29.901h-180.429zM367.411 117.862c0 36.045 10.445 63.693 31.334 83.149s51.61 29.286 92.365 29.286c39.117 0 69.018-9.83 89.907-29.696 20.89-19.661 31.334-47.309 31.334-82.944s-10.854-63.078-32.563-82.739c-21.709-19.456-51.405-29.286-88.883-29.286-38.707 0-69.018 9.626-90.931 29.082-21.504 19.661-32.563 47.309-32.563 83.149z" />
<glyph unicode="&#xe90d;" glyph-name="build_failed" d="M1002.496 735.744l-202.752 202.752-287.744-287.744-287.744 287.744-202.752-202.752 287.744-287.744-287.744-287.744 202.752-202.752 287.744 287.744 287.744-287.744 202.752 202.752-287.744 287.744z" />
</font></defs></svg>

<svg xmlns="http://www.w3.org/2000/svg"><defs><font id="icomoon" horiz-adv-x="1024"><font-face units-per-em="1024" ascent="960" descent="-64"/><glyph horiz-adv-x="512"/><glyph unicode="" glyph-name="osi" d="M574.054 270.234c89.293 34.202 133.734 134.144 99.533 223.027-34.202 89.088-134.349 133.53-223.437 99.328-89.293-34.202-133.734-134.144-99.533-223.027 17.613-45.67 53.658-81.715 99.533-99.328L333.619-32.87C76.595 65.434-51.61 353.178 46.899 609.588s386.662 384.614 643.686 286.106c256.819-98.509 385.229-386.048 286.515-642.662-50.586-131.686-154.829-235.52-286.515-286.106L574.054 270.235z"/><glyph unicode="" glyph-name="author" d="M765.542 685.978c0-140.028-113.515-253.542-253.542-253.542S258.458 545.951 258.458 685.978c0 140.028 113.515 253.542 253.542 253.542s253.542-113.515 253.542-253.542zM1003.52-64c0 177.562-75.981 472.064-214.221 562.586C734.413 402.33 630.989 337.204 512 337.204S289.792 402.33 234.701 498.586C96.461 408.064 20.48 113.562 20.48-64z"/><glyph unicode="" glyph-name="clock" d="M512 939.52C240.64 939.52 20.48 719.36 20.48 448S240.64-43.52 512-43.52 1003.52 176.64 1003.52 448 783.36 939.52 512 939.52zm.41-564.019L240.845 647.066l72.499 72.499L512.41 520.499l141.107 141.107 72.499-72.499L512.41 375.501z"/><glyph unicode="" glyph-name="inbox" d="M819.2 929.28H204.8c-101.376 0-184.32-82.944-184.32-184.32V376.32C20.48 274.944 103.424 192 204.8 192h399.565c9.83-12.698 19.251-26.214 28.877-40.96 53.248-82.33 57.754-127.59 22.323-184.32C797.287 23.45 846.029 68.71 899.277 151.04c22.118 34.202 35.43 62.054 41.37 87.04 38.298 33.792 62.874 83.149 62.874 138.24v368.64c0 101.376-82.944 184.32-184.32 184.32z"/><glyph unicode="" glyph-name="package" d="M982.426 695.808L556.852 521.114v-573.44l425.574 174.694v573.44zm-940.852 0v-573.44L467.148-52.326v573.44L41.574 695.808zM512 948.326L94.003 776.704 512 605.286l417.997 171.418L512 948.326z"/><glyph unicode="" glyph-name="star" d="M512 913.101l151.142-306.176 337.715-49.152-244.326-238.387L814.08-17.1 512 141.825 209.92-17.1l57.549 336.486L23.143 557.773l337.715 49.152z"/><glyph unicode="" glyph-name="stable" d="M512 939.52C240.64 939.52 20.48 719.36 20.48 448S240.64-43.52 512-43.52 1003.52 176.64 1003.52 448 783.36 939.52 512 939.52zm-87.45-780.902L194.355 388.813 310.272 504.73l114.483-114.483 289.382 289.382 115.917-115.917L424.55 158.618z"/><glyph unicode="" glyph-name="beta" d="M509.542 457.83h-14.95v76.39h10.035c11.878 0 21.094 4.096 27.648 12.083s9.626 18.842 9.626 32.563-3.686 24.166-11.059 31.539c-7.373 7.373-16.998 11.059-28.877 11.059-14.95 0-25.805-4.71-32.768-14.131s-10.445-23.552-10.445-42.394v-189.44c5.325-3.891 12.902-7.168 22.938-9.83s19.046-4.096 27.238-4.096c16.794 0 30.106 4.301 39.731 12.698S563.2 395.57 563.2 412.569c0 13.722-4.71 24.781-14.131 32.973s-22.528 12.288-39.526 12.288zM512 939.52C240.64 939.52 20.48 719.36 20.48 448S240.64-43.52 512-43.52 1003.52 176.64 1003.52 448 783.36 939.52 512 939.52zm121.242-625.459c-22.938-21.914-53.658-32.973-91.955-32.973-16.794 0-32.563 1.434-47.104 4.301s-26.419 6.554-35.43 11.059V156.979H356.148v417.178c0 39.322 13.107 69.632 39.322 91.341s62.669 32.358 109.568 32.358c43.418 0 77.414-9.216 101.99-27.648s36.864-43.827 36.864-76.39c0-26.01-6.349-46.285-19.251-61.235s-31.13-24.166-54.477-28.058v-2.048c33.587-4.301 58.368-14.746 73.933-31.334 15.77-16.589 23.552-39.322 23.552-68.198.205-37.274-11.469-66.97-34.406-88.883z"/><glyph unicode="" glyph-name="branch" d="M450.56 194.458C336.282 222.311 250.88 325.12 250.88 448s85.402 225.69 199.68 253.542v234.086C208.077 905.318 20.48 698.674 20.48 447.999S208.077-9.319 450.56-39.63v234.086zm122.88 507.084C687.718 673.689 773.12 570.88 773.12 448c0-43.418-10.854-84.173-29.491-120.218L880.64 190.771v-67.789c76.39 86.63 122.88 200.294 122.88 325.018 0 250.675-187.597 457.318-430.08 487.629V701.543zM650.24 448c0-76.348-61.892-138.24-138.24-138.24S373.76 371.652 373.76 448c0 76.348 61.892 138.24 138.24 138.24S650.24 524.348 650.24 448zm107.52-308.019l-95.232 95.232c-26.419-18.842-56.73-32.768-89.088-40.55V-39.423C640-31.026 702.259-9.522 757.76 22.631v117.35z"/><glyph unicode="" glyph-name="question" d="M512 939.52C240.64 939.52 20.48 719.36 20.48 448S240.64-43.52 512-43.52 1003.52 176.64 1003.52 448 783.36 939.52 512 939.52zm43.827-757.146c-12.902-11.674-30.515-17.408-52.838-17.408-22.938 0-40.96 5.734-53.862 17.203s-19.456 27.853-19.456 49.357c0 21.299 6.144 37.888 18.637 49.357 12.493 11.674 30.72 17.408 54.886 17.408 23.142 0 40.96-5.939 53.453-17.613s18.637-28.262 18.637-49.357c-.205-20.89-6.554-37.274-19.456-48.947zm113.459 307.61c-13.107-20.48-33.997-39.936-62.874-58.368-24.371-15.77-39.731-27.238-45.875-34.611s-9.216-15.974-9.216-26.01v-17.818H444.415v29.901c0 22.733 4.71 41.984 13.926 57.549s25.805 30.925 49.357 45.875c18.842 11.878 32.358 22.528 40.55 31.949s12.288 20.48 12.288 32.768c0 9.83-4.506 17.408-13.312 23.142s-20.275 8.602-34.406 8.602c-35.021 0-75.981-12.493-122.88-37.274l-48.333 94.618c57.754 32.973 118.17 49.357 181.043 49.357 51.814 0 92.365-11.264 121.856-34.202 29.491-22.733 44.237-53.658 44.237-92.979.205-27.648-6.349-52.019-19.456-72.499z"/><glyph unicode="" glyph-name="warning" d="M512 939.52C240.64 939.52 20.48 719.36 20.48 448S240.64-43.52 512-43.52 1003.52 176.64 1003.52 448 783.36 939.52 512 939.52zm54.477-740.966c-13.107-12.083-31.334-18.227-54.886-18.227-23.757 0-42.394 6.144-55.706 18.227s-20.07 29.082-20.07 50.586c0 21.914 6.554 38.912 19.456 50.995s31.744 18.227 56.525 18.227c24.576 0 43.008-6.144 55.706-18.227 12.493-12.083 18.842-29.082 18.842-50.995-.205-21.709-6.758-38.502-19.866-50.586zm4.915 176.537H452.608l-18.432 340.582h155.443l-18.227-340.582z"/><glyph unicode="" glyph-name="build_success" d="M375.194 40.653L15.156 400.691l181.248 181.043 178.79-178.79 452.403 452.403 181.248-181.043z"/><glyph unicode="" glyph-name="build_unknown" d="M392.602 323.072v50.381c0 38.298 7.782 70.656 23.552 97.075 15.565 26.419 43.418 52.019 83.354 77.005 31.744 19.866 54.477 37.888 68.403 53.862s20.89 34.406 20.89 55.091c0 16.384-7.373 29.491-22.323 38.912-14.95 9.626-34.202 14.336-57.958 14.336-58.982 0-128-20.89-207.053-62.669l-81.51 159.539c97.28 55.501 198.861 83.354 304.947 83.354 87.245 0 155.648-19.251 205.21-57.549s74.547-90.522 74.547-156.467c0-47.309-11.059-88.269-33.178-122.88s-57.344-67.379-105.882-98.304c-40.96-26.624-66.765-46.08-77.005-58.368-10.445-12.288-15.565-26.829-15.565-43.622v-29.901H392.602zm-25.191-205.21c0 36.045 10.445 63.693 31.334 83.149s51.61 29.286 92.365 29.286c39.117 0 69.018-9.83 89.907-29.696 20.89-19.661 31.334-47.309 31.334-82.944s-10.854-63.078-32.563-82.739c-21.709-19.456-51.405-29.286-88.883-29.286-38.707 0-69.018 9.626-90.931 29.082-21.504 19.661-32.563 47.309-32.563 83.149z"/><glyph unicode="" glyph-name="build_failed" d="M1002.496 735.744L799.744 938.496 512 650.752 224.256 938.496 21.504 735.744 309.248 448 21.504 160.256 224.256-42.496 512 245.248 799.744-42.496l202.752 202.752L714.752 448z"/></font></defs></svg>
